src/renderer/assets/icon/reload-default-icon.svg

<?xml version="1.0" encoding="UTF-8"?>
<svg width="13px" height="13px" viewBox="0 0 13 13" version="1.1" xmlns="http://www.w3.org/2000/svg" xmlns:xlink="http://www.w3.org/1999/xlink">
    <!-- Generator: Sketch 58 (84663) - https://sketch.com -->
    <desc>Created with Sketch.</desc>
    <defs>
        <radialGradient cx="81.8460892%" cy="79.2345085%" fx="81.8460892%" fy="79.2345085%" r="114.598978%" gradientTransform="translate(0.818461,0.792345),scale(0.945892,1.000000),rotate(-139.029722),translate(-0.818461,-0.792345)" id="radialGradient-1">
            <stop stop-color="#FFFFFF" stop-opacity="0.775928442" offset="0%"></stop>
            <stop stop-color="#FFFFFF" stop-opacity="0.508378623" offset="100%"></stop>
        </radialGradient>
    </defs>
    <g id="Icons/reload-default-icon" stroke="none" stroke-width="1" fill="none" fill-rule="evenodd" fill-opacity="0.7" stroke-opacity="0.168081975">
        <path d="M11.40295,8.61692509 C11.338894,8.41977183 11.1271457,8.31199071 10.9299624,8.37592663 L10.4418391,8.53452013 C10.7408574,7.91612259 10.8974689,7.23610152 10.8974689,6.54169561 C10.8974689,4.01642216 8.84305086,1.96197412 6.31774738,1.96197412 C3.79247393,1.96197412 1.73802588,4.01642216 1.73802588,6.54169561 C1.73802588,9.06696906 3.79247393,11.1214171 6.31774738,11.1214171 C6.5250511,11.1214171 6.69313439,10.9533338 6.69313439,10.7460301 C6.69313439,10.5387564 6.5250511,10.3706431 6.31774738,10.3706431 C4.20645072,10.3706431 2.4887999,8.6530223 2.4887999,6.54169561 C2.4887999,4.43039896 4.20645072,2.71274813 6.31774738,2.71274813 C8.42907407,2.71274813 10.1466949,4.43039896 10.1466949,6.54169561 C10.1466949,7.12345538 10.0154295,7.69299255 9.76461095,8.21045603 L9.59784903,7.69704673 C9.53379299,7.49992351 9.32198462,7.3920523 9.1248614,7.45604827 C8.92767811,7.52013434 8.81974684,7.73191268 8.88380287,7.92906593 L9.32645923,9.29151056 C9.37796233,9.45016412 9.52511404,9.55103812 9.6833772,9.55103812 C9.7217868,9.55103812 9.76091714,9.54509199 9.79944686,9.53259911 L11.1619215,9.09000281 C11.3590748,9.02591674 11.467006,8.81416844 11.40295,8.61692509 Z" id="路径" stroke="#FFFFFF" stroke-width="0.533500016" fill="url(#radialGradient-1)" transform="translate(6.579721, 6.541696) rotate(-60.000000) translate(-6.579721, -6.541696) "></path>
    </g>
</svg>

<svg width="13" height="13" xmlns="http://www.w3.org/2000/svg">
    <defs>
        <radialGradient cx="81.846%" cy="79.235%" fx="81.846%" fy="79.235%" r="114.599%" gradientTransform="matrix(-.7142 -.65567 .6202 -.75505 .912 1.927)" id="a">
            <stop stop-color="#FFF" stop-opacity=".776" offset="0%"/>
            <stop stop-color="#FFF" stop-opacity=".508" offset="100%"/>
        </radialGradient>
    </defs>
    <path d="M11.403 8.617a.375.375 0 00-.473-.241l-.488.159a4.585 4.585 0 00-4.124-6.573 4.585 4.585 0 00-4.58 4.58 4.585 4.585 0 004.58 4.58.375.375 0 000-.751 3.833 3.833 0 01-3.83-3.83 3.833 3.833 0 013.83-3.828A3.833 3.833 0 019.765 8.21l-.167-.513a.375.375 0 00-.714.232l.442 1.363a.375.375 0 00.473.24l1.363-.442a.375.375 0 00.24-.473z" stroke="#FFF" stroke-width=".534" fill="url(#a)" transform="rotate(-60 6.58 6.542)" fill-rule="evenodd" fill-opacity=".7" stroke-opacity=".168"/>
</svg>
